X:1
T: Lady Betty Boyle
C:Robert MacKintosh
R:Reel
Q: 232
K:Bb
M:4/4
L:1/8
|:d|B2 D1/2E1/2F E1/2F1/2G F1/2G1/2A|B1/2c1/2d1/2e1/2 fB Ac cd|Bf Af Gb fb|eg fa bB Bd|
B2 D1/2E1/2F E1/2F1/2G F1/2G1/2A|B1/2c1/2d1/2e1/2 fB Ac cd|Bf Af Gb fb|eg fa bB Bf|
d1/2c1/2B df gB fB|ec dB Ac cf|d1/2c1/2B Af eG Fd|Gc FA BB, B,f|
d1/2c1/2B df gB fB|e1/2d1/2c d1/2c1/2B Ac cd|ec GE dB FD|EG FA BB, B,:|
